public/hero-logo.svg

<svg width="673" height="808" fill="none" xmlns="http://www.w3.org/2000/svg"><g clip-path="url(#a)"><mask id="b" style="mask-type:luminance" maskUnits="userSpaceOnUse" x="0" y="0" width="673" height="808"><path d="M673 0H0v808h673V0z" fill="#fff"/></mask><g mask="url(#b)"><path d="M.534 184.741c-4.165-28.505 16.483-54.859 46.12-58.866l429.292-58.028c29.633-4.006 57.036 15.854 61.201 44.359l84.844 580.633c4.164 28.507-16.485 54.86-46.122 58.866l-411.402 55.609c-39.515 5.345-76.05-21.138-81.604-59.14L.535 184.741z" fill="url(#c)"/><path d="M42.641 128.661c-4.512-32.38 17.856-62.318 49.96-66.868L524.428.583c32.102-4.55 61.786 18.01 66.299 50.39l81.694 586.282c4.513 32.379-17.856 62.317-49.958 66.871l-431.825 61.206c-32.104 4.553-61.787-18.008-66.299-50.387L42.641 128.661z" fill="url(#d)"/><path d="M80.33 141.996c-3.21-23.004 12.705-44.274 35.547-47.508L512.935 38.29c22.84-3.233 43.96 12.794 47.173 35.8l76.726 549.829c3.21 23.007-12.702 44.276-35.546 47.508l-397.056 56.198c-22.843 3.236-43.963-12.793-47.173-35.796L80.33 141.996z" fill="#F3F3F3"/></g><g filter="url(#e)"><path d="M322.811 165.908c-.416.258-3.163 4.079-6.561 8.436-7.061 9.052-8.322 10.535-12.311 14.334-12.16 11.624-26.285 19.227-44.953 24.199-7.094 1.896-10.771 2.537-19.433 3.384-7.852.759-7.991.779-8.661 1.441-1.412 1.42-1.579-.141 4.255 41.365 6.12 43.702 7.026 49.233 9.392 56.253 2.473 7.373 6.327 16.017 9.005 20.472.702 1.145 1.178 1.576 2.554 1.69 2.606.192 12.195-.034 17.406-.442 7.849-.589 23.358-2.453 33.023-4.406 9.934-2.049 18.932-3.652 28.418-6.259 13.468-3.687 23.609-6.671 31.397-9.261 15.364-5.092 40.871-15.518 52.327-21.38 7.527-3.826 17.615-9.746 21.437-12.53 1.543-1.099 1.828-1.48 2.054-2.475.222-1.022-.545-6.771-6.021-44.99-6.879-47.81-6.478-45.603-8.29-46.588-.802-.452-.968-.428-9.412 1.152-4.719.876-9.791 1.66-11.302 1.792-6.675.477-16.249.493-22.1.002-2.895-.236-12.002-1.702-14.992-2.405-6.453-1.537-15.767-5.238-23.585-9.381-3.896-2.073-12.878-7.9-16.456-10.925-4.447-3.749-6.024-4.2-7.191-3.478z" fill="url(#f)"/><path d="m439.117 221.688 1.687 11.773 1.614 11.26 3.117.242c3.042.469 7.23 1.623 10.677 2.94 6.386 2.451 9.615 6.403 9.712 11.823.097 5.618-5.454 13.349-15.398 21.456-4.746 3.851-13.589 9.762-18.617 12.436-1.158.619-3.172 1.786-4.477 2.567-3.045 1.881-13.546 7.095-22.25 11.005-12.507 5.644-19.086 8.173-38.775 14.905-14.419 4.956-32.722 10.017-51.424 13.946-17.457 3.668-30.368 5.241-34.172 5.346-3.568.439-7.541.481-9.925.653-11.604.873-21.32-.374-28.852-2.124-8.178-1.911-12.74-4.285-15.338-7.987-1.135-1.592-1.238-1.917-1.588-4.357-.369-2.58-.338-2.754.467-5.247.646-2.017 1.292-3.242 2.873-5.45 2.288-3.215 5.404-6.776 7.938-9.064l.973-.752-2.3-12.467-1.651-11.517-2.125.986c-15.338 7.834-28.931 16.379-41.017 25.756-12.209 9.507-20.091 18.563-22.793 26.196-2.235 6.349-1.834 10.339 1.551 15.57 1.305 1.992 3.634 3.809 7.878 6.144 4.09 2.243 11.836 4.697 17.424 5.537 1.388.197 3.625.583 4.99.812 3.085.576 14.777 1.304 20.441 1.284 13.143-.019 15.507-.132 30.403-1.364 11.675-.968 42.002-5.632 54.613-8.375 10.929-2.418 34.014-8.193 45.538-11.404 19.345-5.38 48.087-15.364 68.01-23.629 11.258-4.673 17.845-7.542 23.46-10.273 2.705-1.294 6.579-3.123 8.629-4.04 3.858-1.743 9.351-4.541 11.615-5.941.729-.444 3.612-2.075 6.424-3.611 12.903-7.031 21.484-12.593 31.504-20.371 8.513-6.627 13.957-11.937 18.52-18.054 4.539-6.086 6.521-11.436 6.21-16.769-.128-2.473-.806-4.243-2.667-7.146-2.575-3.933-8.438-7.478-16.157-9.738-7.337-2.174-11.494-2.908-20.651-3.744-11.998-1.08-20.973-1.038-38.649.169-3.339.225-7.171.58-7.442.618z" fill="url(#g)"/><path d="M427.489 322.267c-26.534 11.167-57.351 21.704-84.675 28.937-4.505 1.185-10.751 2.873-13.92 3.696-8.018 2.17-18.809 4.766-26.428 6.369-3.545.763-7.887 1.698-9.617 2.088-1.729.389-5.833 1.205-9.097 1.758-3.26.581-6.502.839-7.097 1.038l-1.259.18 2.749 2.955c8.494 8.659 22.195 19.26 33.897 26.185 11.611 6.881 22.689 12.028 35.814 16.625 11.221 3.966 12.613 4.191 15.659 2.508 3.862-2.111 14.572-10.016 20.881-15.422 11.332-9.693 20.693-19.698 28.999-30.938 9.824-13.298 14.704-21.753 20.221-34.857 2.643-6.267 5.683-15.506 5.175-15.688-.123-.067-5.207 2.021-11.302 4.566z" fill="url(#h)"/></g><path d="m268.693 531.549 20.19-2.813 14.119 28.974 5.67-31.731 20.324-2.832-10.037 46.379 13.144 23.93 14.122-72.846 23.934-3.334-23.823 100.095-18.986 2.645-20.551-35.029-10.068 39.296-19.121 2.664-50.118-89.793 23.8-3.316 33.612 66.195 5.842-26.576-22.053-41.908zm121.19 79.754-9.771-70.198 21.394-2.981 9.771 70.198-21.394 2.981zm-10.888-78.221-2.698-19.388 21.393-2.981 2.699 19.389-21.394 2.98zm94.126 66.623-22.226-25.527-6.427 8.665 2.847 20.458-21.393 2.981-13.587-97.609 21.394-2.981 7.854 56.426 19.761-32.331 22.597-3.149-21.065 33.74 32.976 36.16-22.731 3.167zm28.926-4.03-9.771-70.198 21.393-2.981 9.771 70.198-21.393 2.981zm-10.888-78.221-2.699-19.388 21.394-2.981 2.698 19.388-21.393 2.981z" fill="url(#i)"/></g><defs><linearGradient id="c" x1="1.883" y1="69.071" x2="624.769" y2="805.764" gradientUnits="userSpaceOnUse"><stop stop-color="#B05833"/><stop offset="1" stop-color="#421313"/></linearGradient><linearGradient id="d" x1="47.05" y1="80.605" x2="668.567" y2="684.262" gradientUnits="userSpaceOnUse"><stop stop-color="#FF4D00"/><stop offset="1" stop-color="#F99846"/></linearGradient><linearGradient id="f" x1="374.605" y1="377.456" x2="290.016" y2="176.329" gradientUnits="userSpaceOnUse"><stop stop-color="#E25B05"/><stop offset="1" stop-color="#FF8D2D"/></linearGradient><linearGradient id="g" x1="387.484" y1="375.882" x2="337.092" y2="236.349" gradientUnits="userSpaceOnUse"><stop stop-color="#FF8D2D"/><stop offset="1" stop-color="#FF6807"/></linearGradient><linearGradient id="h" x1="291.052" y1="176.179" x2="392.29" y2="389.016" gradientUnits="userSpaceOnUse"><stop stop-color="#FF8D2D"/><stop offset="1" stop-color="#FF6807"/></linearGradient><linearGradient id="i" x1="275" y1="470.5" x2="407.981" y2="607.518" gradientUnits="userSpaceOnUse"><stop stop-color="#E25B05"/><stop offset="1" stop-color="#FF8D2D"/></linearGradient><clipPath id="a"><path fill="#fff" d="M0 0h673v808H0z"/></clipPath><filter id="e" x="-83.923" y="-84.38" width="858.637" height="749.978" filterUnits="userSpaceOnUse" color-interpolation-filters="sRGB"><feFlood flood-opacity="0" result="BackgroundImageFix"/><feColorMatrix in="SourceAlpha" values="0 0 0 0 0 0 0 0 0 0 0 0 0 0 0 0 0 0 127 0" result="hardAlpha"/><feOffset/><feGaussianBlur stdDeviation="125"/><feComposite in2="hardAlpha" operator="out"/><feColorMatrix values="0 0 0 0 0.976471 0 0 0 0 0.406745 0 0 0 0 0.0862745 0 0 0 0.25 0"/><feBlend in2="BackgroundImageFix" result="effect1_dropShadow_1670_2"/><feBlend in="SourceGraphic" in2="effect1_dropShadow_1670_2" result="shape"/></filter></defs></svg>

<svg width="673" height="808" viewBox="0 0 673 808" fill="none" xmlns="http://www.w3.org/2000/svg">
<g clip-path="url(#clip0_1670_2)">
<mask id="mask0_1670_2" style="mask-type:luminance" maskUnits="userSpaceOnUse" x="0" y="0" width="673" height="808">
<path d="M673 0H0V808H673V0Z" fill="white"/>
</mask>
<g mask="url(#mask0_1670_2)">
<path d="M0.53415 184.741C-3.63115 156.236 17.0174 129.882 46.6536 125.875L475.946 67.8472C505.579 63.8413 532.982 83.7008 537.147 112.206L621.991 692.839C626.155 721.346 605.506 747.699 575.869 751.705L164.467 807.314C124.952 812.659 88.4166 786.176 82.8635 748.174L0.53415 184.741Z" fill="url(#paint0_linear_1670_2)"/>
<path d="M42.6414 128.661C38.1292 96.2812 60.4973 66.3431 92.6015 61.7926L524.427 0.583546C556.529 -3.9671 586.213 18.5927 590.726 50.9722L672.42 637.255C676.933 669.634 654.564 699.572 622.462 704.126L190.637 765.332C158.533 769.885 128.85 747.324 124.338 714.945L42.6414 128.661Z" fill="url(#paint1_linear_1670_2)"/>
<path d="M80.3304 141.996C77.1198 118.992 93.035 97.7217 115.877 94.4884L512.935 38.2896C535.775 35.0565 556.895 51.0845 560.108 74.0894L636.834 623.919C640.044 646.926 624.132 668.195 601.288 671.427L204.232 727.625C181.389 730.861 160.269 714.832 157.059 691.829L80.3304 141.996Z" fill="#F3F3F3"/>
</g>
<g filter="url(#filter0_d_1670_2)">
<path d="M322.811 165.908C322.395 166.166 319.648 169.987 316.25 174.344C309.189 183.396 307.928 184.879 303.939 188.678C291.779 200.302 277.654 207.905 258.986 212.877C251.892 214.773 248.215 215.414 239.553 216.261C231.701 217.02 231.562 217.04 230.892 217.702C229.48 219.122 229.313 217.561 235.147 259.067C241.267 302.769 242.173 308.3 244.539 315.32C247.012 322.693 250.866 331.337 253.544 335.792C254.246 336.937 254.722 337.368 256.098 337.482C258.704 337.674 268.293 337.448 273.504 337.04C281.353 336.451 296.862 334.587 306.527 332.634C316.461 330.585 325.459 328.982 334.945 326.375C348.413 322.688 358.554 319.704 366.342 317.114C381.706 312.022 407.213 301.596 418.669 295.734C426.196 291.908 436.284 285.988 440.106 283.204C441.649 282.105 441.934 281.724 442.16 280.729C442.382 279.707 441.615 273.958 436.139 235.739C429.26 187.929 429.661 190.136 427.849 189.151C427.047 188.699 426.881 188.723 418.437 190.303C413.718 191.179 408.646 191.963 407.135 192.095C400.46 192.572 390.886 192.588 385.035 192.097C382.14 191.861 373.033 190.395 370.043 189.692C363.59 188.155 354.276 184.454 346.458 180.311C342.562 178.238 333.58 172.411 330.002 169.386C325.555 165.637 323.978 165.186 322.811 165.908Z" fill="url(#paint2_linear_1670_2)"/>
<path d="M439.117 221.688C439.117 221.688 439.914 227.249 440.804 233.461L442.418 244.721L445.535 244.963C448.577 245.432 452.765 246.586 456.212 247.903C462.598 250.354 465.827 254.306 465.924 259.726C466.021 265.344 460.47 273.075 450.526 281.182C445.78 285.033 436.937 290.944 431.909 293.618C430.751 294.237 428.737 295.404 427.432 296.185C424.387 298.066 413.886 303.28 405.182 307.19C392.675 312.834 386.096 315.363 366.407 322.095C351.988 327.051 333.685 332.112 314.983 336.041C297.526 339.709 284.615 341.282 280.811 341.387C277.243 341.826 273.27 341.868 270.886 342.04C259.282 342.913 249.566 341.666 242.034 339.916C233.856 338.005 229.294 335.631 226.696 331.929C225.561 330.337 225.458 330.012 225.108 327.572C224.739 324.992 224.77 324.818 225.575 322.325C226.221 320.308 226.867 319.083 228.448 316.875C230.736 313.66 233.852 310.099 236.386 307.811L237.359 307.059L235.059 294.592L233.408 283.075L231.283 284.061C215.945 291.895 202.352 300.44 190.266 309.817C178.057 319.324 170.175 328.38 167.473 336.013C165.238 342.362 165.639 346.352 169.024 351.583C170.329 353.575 172.658 355.392 176.902 357.727C180.992 359.97 188.738 362.424 194.326 363.264C195.714 363.461 197.951 363.847 199.316 364.076C202.401 364.652 214.093 365.38 219.757 365.36C232.9 365.341 235.264 365.228 250.16 363.996C261.835 363.028 292.162 358.364 304.773 355.621C315.702 353.203 338.787 347.428 350.311 344.217C369.656 338.837 398.398 328.853 418.321 320.588C429.579 315.915 436.166 313.046 441.781 310.315C444.486 309.021 448.36 307.192 450.41 306.275C454.268 304.532 459.761 301.734 462.025 300.334C462.754 299.89 465.637 298.259 468.449 296.723C481.352 289.692 489.933 284.13 499.953 276.352C508.466 269.725 513.91 264.415 518.473 258.298C523.012 252.212 524.994 246.862 524.683 241.529C524.555 239.056 523.877 237.286 522.016 234.383C519.441 230.45 513.578 226.905 505.859 224.645C498.522 222.471 494.365 221.737 485.208 220.901C473.21 219.821 464.235 219.863 446.559 221.07C443.22 221.295 439.388 221.65 439.117 221.688Z" fill="url(#paint3_linear_1670_2)"/>
<path d="M427.489 322.267C400.955 333.434 370.138 343.971 342.814 351.204C338.309 352.389 332.063 354.077 328.894 354.9C320.876 357.07 310.085 359.666 302.466 361.269C298.921 362.032 294.579 362.967 292.849 363.357C291.12 363.746 287.016 364.562 283.752 365.115C280.492 365.696 277.25 365.954 276.655 366.153L275.396 366.333L278.145 369.288C286.639 377.947 300.34 388.548 312.042 395.473C323.653 402.354 334.731 407.501 347.856 412.098C359.077 416.064 360.469 416.289 363.515 414.606C367.377 412.495 378.087 404.59 384.396 399.184C395.728 389.491 405.089 379.486 413.395 368.246C423.219 354.948 428.099 346.493 433.616 333.389C436.259 327.122 439.299 317.883 438.791 317.701C438.668 317.634 433.584 319.722 427.489 322.267Z" fill="url(#paint4_linear_1670_2)"/>
</g>
<path d="M268.693 531.549L288.883 528.736L303.002 557.71L308.672 525.979L328.996 523.147L318.959 569.526L332.103 593.456L346.225 520.61L370.159 517.276L346.336 617.371L327.35 620.016L306.799 584.987L296.731 624.283L277.61 626.947L227.492 537.154L251.292 533.838L284.904 600.033L290.746 573.457L268.693 531.549ZM389.883 611.303L380.112 541.105L401.506 538.124L411.277 608.322L389.883 611.303ZM378.995 533.082L376.297 513.694L397.69 510.713L400.389 530.102L378.995 533.082ZM473.121 599.705L450.895 574.178L444.468 582.843L447.315 603.301L425.922 606.282L412.335 508.673L433.729 505.692L441.583 562.118L461.344 529.787L483.941 526.638L462.876 560.378L495.852 596.538L473.121 599.705ZM502.047 595.675L492.276 525.477L513.669 522.496L523.44 592.694L502.047 595.675ZM491.159 517.454L488.46 498.066L509.854 495.085L512.552 514.473L491.159 517.454Z" fill="url(#paint5_linear_1670_2)"/>
</g>
<defs>
<filter id="filter0_d_1670_2" x="-83.9229" y="-84.3804" width="858.637" height="749.978" filterUnits="userSpaceOnUse" color-interpolation-filters="sRGB">
<feFlood flood-opacity="0" result="BackgroundImageFix"/>
<feColorMatrix in="SourceAlpha" type="matrix" values="0 0 0 0 0 0 0 0 0 0 0 0 0 0 0 0 0 0 127 0" result="hardAlpha"/>
<feOffset/>
<feGaussianBlur stdDeviation="125"/>
<feComposite in2="hardAlpha" operator="out"/>
<feColorMatrix type="matrix" values="0 0 0 0 0.976471 0 0 0 0 0.406745 0 0 0 0 0.0862745 0 0 0 0.25 0"/>
<feBlend mode="normal" in2="BackgroundImageFix" result="effect1_dropShadow_1670_2"/>
<feBlend mode="normal" in="SourceGraphic" in2="effect1_dropShadow_1670_2" result="shape"/>
</filter>
<linearGradient id="paint0_linear_1670_2" x1="1.88273" y1="69.0714" x2="624.769" y2="805.764" gradientUnits="userSpaceOnUse">
<stop stop-color="#B05833"/>
<stop offset="1" stop-color="#421313"/>
</linearGradient>
<linearGradient id="paint1_linear_1670_2" x1="47.0504" y1="80.6047" x2="668.567" y2="684.262" gradientUnits="userSpaceOnUse">
<stop stop-color="#FF4D00"/>
<stop offset="1" stop-color="#F99846"/>
</linearGradient>
<linearGradient id="paint2_linear_1670_2" x1="374.605" y1="377.456" x2="290.016" y2="176.329" gradientUnits="userSpaceOnUse">
<stop stop-color="#E25B05"/>
<stop offset="1" stop-color="#FF8D2D"/>
</linearGradient>
<linearGradient id="paint3_linear_1670_2" x1="387.484" y1="375.882" x2="337.092" y2="236.349" gradientUnits="userSpaceOnUse">
<stop stop-color="#FF8D2D"/>
<stop offset="1" stop-color="#FF6807"/>
</linearGradient>
<linearGradient id="paint4_linear_1670_2" x1="291.052" y1="176.179" x2="392.29" y2="389.016" gradientUnits="userSpaceOnUse">
<stop stop-color="#FF8D2D"/>
<stop offset="1" stop-color="#FF6807"/>
</linearGradient>
<linearGradient id="paint5_linear_1670_2" x1="275" y1="470.5" x2="407.981" y2="607.518" gradientUnits="userSpaceOnUse">
<stop stop-color="#E25B05"/>
<stop offset="1" stop-color="#FF8D2D"/>
</linearGradient>
<clipPath id="clip0_1670_2">
<rect width="673" height="808" fill="white"/>
</clipPath>
</defs>
</svg>
